icons/child_program_fill.svg

<svg width="48" height="48" viewBox="0 0 48 48" fill="none" xmlns="http://www.w3.org/2000/svg">
<path d="M17.8008 13.7336C17.8008 15.7957 16.1292 17.4673 14.0672 17.4673C12.0051 17.4673 10.3335 15.7957 10.3335 13.7336C10.3335 11.6716 12.0051 10 14.0672 10C16.1292 10 17.8008 11.6716 17.8008 13.7336Z" fill="black"/>
<path fill-rule="evenodd" clip-rule="evenodd" d="M9.69602 25.9948C9.11046 26.931 7.87651 27.2161 6.94003 26.6308C6.00335 26.0454 5.71861 24.8115 6.30403 23.8748L6.30773 23.8689L6.31483 23.8576L6.33895 23.8195C6.35933 23.7875 6.38822 23.7424 6.42477 23.686C6.49778 23.5735 6.60186 23.4153 6.7302 23.2266C6.98492 22.8521 7.34423 22.3439 7.75218 21.8278C8.15078 21.3235 8.6409 20.7539 9.15896 20.2919C9.41791 20.061 9.73028 19.8148 10.0826 19.6172C10.4149 19.4308 10.9345 19.2012 11.5689 19.2012H16.5654C17.1999 19.2012 17.7195 19.4308 18.0518 19.6172C18.4041 19.8148 18.7165 20.061 18.9754 20.2919C19.4935 20.7539 19.9836 21.3235 20.3822 21.8278C20.7902 22.3439 21.1495 22.8521 21.4042 23.2266C21.5325 23.4153 21.6366 23.5735 21.7096 23.686C21.7462 23.7424 21.775 23.7875 21.7954 23.8195L21.8196 23.8576L21.8267 23.8689L21.8298 23.8739C21.8298 23.8739 21.7954 23.8195 21.8304 23.8748C22.4158 24.8115 22.131 26.0454 21.1944 26.6308C20.2578 27.2161 19.0241 26.9316 18.4386 25.9952L18.4357 25.9906L18.4203 25.9662C18.4059 25.9436 18.3834 25.9085 18.3537 25.8627C18.3296 25.8255 18.3008 25.7814 18.2677 25.7313V28.2152L18.991 35.8104C19.094 36.8918 18.315 37.8577 17.2363 37.986C16.1577 38.1143 15.1738 37.3582 15.0201 36.2828L14 29.1421L12.9799 36.2828C12.8263 37.3582 11.8424 38.1143 10.7637 37.986C9.68506 37.8577 8.90605 36.8918 9.00904 35.8104L9.84812 27H9.86698V25.7309C9.83378 25.7811 9.80485 25.8254 9.78064 25.8627C9.75097 25.9085 9.72852 25.9436 9.71411 25.9662L9.69868 25.9906L9.69602 25.9948Z" fill="black"/>
<path d="M37.8001 13.7333C37.8001 15.7952 36.1286 17.4667 34.0667 17.4667C32.0049 17.4667 30.3334 15.7952 30.3334 13.7333C30.3334 11.6715 32.0049 10 34.0667 10C36.1286 10 37.8001 11.6715 37.8001 13.7333Z" fill="black"/>
<path fill-rule="evenodd" clip-rule="evenodd" d="M29.7013 25.7849C29.1204 26.7242 27.8879 27.0153 26.9485 26.4346C26.0089 25.8538 25.7181 24.6213 26.2988 23.6818L26.3025 23.6759L26.3095 23.6646L26.3334 23.6265C26.3535 23.5945 26.3821 23.5493 26.4182 23.493C26.4904 23.3805 26.5933 23.2224 26.7202 23.0337C26.9721 22.6593 27.3275 22.151 27.731 21.6349C28.1251 21.1307 28.6101 20.5607 29.1233 20.098C29.3797 19.8668 29.6898 19.6195 30.0405 19.4207C30.3707 19.2334 30.8914 19 31.5295 19H36.4706C37.1087 19 37.6294 19.2334 37.9596 19.4207C38.3103 19.6195 38.6205 19.8668 38.8769 20.098C39.39 20.5607 39.875 21.1307 40.2692 21.6349C40.6726 22.151 41.028 22.6593 41.2799 23.0337C41.4068 23.2224 41.5097 23.3805 41.5819 23.493C41.618 23.5493 41.6466 23.5945 41.6668 23.6265L41.6906 23.6646C41.7091 23.6943 41.7013 23.6818 41.7013 23.6818C42.2821 24.6213 41.9912 25.8538 41.0516 26.4346C40.1123 27.0152 38.8803 26.7246 38.2993 25.7857L38.2962 25.7807L38.2809 25.7563C38.2667 25.7337 38.2445 25.6986 38.2151 25.6528C38.1563 25.5612 38.0694 25.4276 37.9609 25.2663C37.9159 25.1994 37.8675 25.1283 37.8163 25.0539C38.2837 27.3844 39.2057 30.5795 39.6885 32.1961C39.8546 32.7523 39.5185 33.3373 38.9504 33.4558C35.4128 34.1931 32.9368 34.1739 29.0962 33.4425C28.511 33.331 28.1598 32.7305 28.3364 32.1616C28.8405 30.5383 29.78 27.3761 30.2249 24.9944C30.1583 25.0905 30.0961 25.1817 30.0392 25.2663C29.9307 25.4276 29.8438 25.5612 29.785 25.6528C29.7556 25.6986 29.7334 25.7337 29.7192 25.7563L29.7039 25.7807L29.7013 25.7849Z" fill="black"/>
<path fill-rule="evenodd" clip-rule="evenodd" d="M29.6 35.1516V36.5C29.6 37.2522 30.1571 37.8881 30.9028 37.9869C31.6485 38.0858 32.3521 37.6171 32.5482 36.8909L32.9435 35.4264C31.8614 35.3898 30.7624 35.2986 29.6 35.1516ZM35.2552 35.4214L35.6519 36.8908C35.8479 37.617 36.5515 38.0857 37.2972 37.9868C38.0429 37.8879 38.6 37.252 38.6 36.4998V35.1377C37.4372 35.2855 36.3378 35.3804 35.2552 35.4214Z" fill="black"/>
</svg>

<svg
  xmlns="http://www.w3.org/2000/svg"
  width="24"
  height="24"
  viewBox="0 0 24 24"
  fill="none"
  stroke="currentColor"
  stroke-width="2"
  stroke-linecap="round"
  stroke-linejoin="round"
>
  <path d="M17.8 13.734a3.734 3.734 0 1 1-7.466 0 3.734 3.734 0 0 1 7.467 0" />
  <path
    fill-rule="evenodd"
    d="M9.696 25.995a2 2 0 0 1-3.392-2.12l.004-.006.007-.011.024-.038a20 20 0 0 1 .391-.593c.255-.375.614-.883 1.022-1.4.399-.504.889-1.073 1.407-1.535.259-.231.571-.477.924-.675.332-.186.851-.416 1.486-.416h4.996c.635 0 1.154.23 1.487.416.352.198.665.444.923.675.518.462 1.009 1.031 1.407 1.536a25 25 0 0 1 1.413 1.992l.025.038.007.01.003.006s-.035-.054 0 0a2 2 0 0 1-3.391 2.121l-.003-.004-.016-.025-.152-.235v2.484l.723 7.595a2 2 0 0 1-3.97.473L14 29.143l-1.02 7.14a2 2 0 0 1-3.971-.473l.84-8.81h.018v-1.27l-.153.236-.015.025z"
    clip-rule="evenodd"
  />
  <path d="M37.8 13.733a3.733 3.733 0 1 1-7.467 0 3.733 3.733 0 0 1 7.467 0" />
  <path
    fill-rule="evenodd"
    d="M29.701 25.785a2 2 0 0 1-3.402-2.103l.003-.006.008-.011.023-.038.085-.134a26 26 0 0 1 1.313-1.858c.394-.504.88-1.074 1.392-1.537.257-.231.567-.479.918-.677.33-.188.85-.421 1.488-.421h4.942c.638 0 1.158.233 1.489.42.35.2.66.447.917.678.513.463.998 1.033 1.392 1.537a25 25 0 0 1 1.398 1.991l.024.039.01.017a2 2 0 0 1-3.402 2.104l-.003-.005-.015-.025-.066-.103a22 22 0 0 0-.399-.6c.468 2.331 1.39 5.526 1.872 7.143a.99.99 0 0 1-.738 1.26c-3.537.737-6.013.718-9.854-.014a1 1 0 0 1-.76-1.28c.505-1.624 1.444-4.786 1.889-7.168a24 24 0 0 0-.506.762l-.015.025z"
    clip-rule="evenodd"
  />
  <path
    fill-rule="evenodd"
    d="M29.6 35.152V36.5a1.5 1.5 0 0 0 2.948.39l.395-1.464a36 36 0 0 1-3.343-.274m5.655.27.397 1.469A1.5 1.5 0 0 0 38.6 36.5v-1.362a38 38 0 0 1-3.345.283"
    clip-rule="evenodd"
  />
</svg>
